austria/municipalities/70209.svg

<?xml version="1.0" encoding="UTF-8"?>
<!DOCTYPE svg PUBLIC "-//W3C//DTD SVG 1.1//EN" "http://www.w3.org/Graphics/SVG/1.1/DTD/svg11.dtd">
<svg xmlns="http://www.w3.org/2000/svg" version="1.1" width="166px" height="192px" style="shape-rendering:geometricPrecision; text-rendering:geometricPrecision; image-rendering:optimizeQuality; fill-rule:evenodd; clip-rule:evenodd" xmlns:xlink="http://www.w3.org/1999/xlink">
<g><path style="opacity:1" fill="#140d0b" d="M -0.5,-0.5 C 54.8333,-0.5 110.167,-0.5 165.5,-0.5C 165.5,39.1667 165.5,78.8333 165.5,118.5C 157.367,159.633 132.7,183.966 91.5,191.5C 84.8333,191.5 78.1667,191.5 71.5,191.5C 30.4766,182.81 6.47657,157.81 -0.5,116.5C -0.5,77.5 -0.5,38.5 -0.5,-0.5 Z"/></g>
<g><path style="opacity:1" fill="#fbfafa" d="M 3.5,3.5 C 29.8333,3.5 56.1667,3.5 82.5,3.5C 82.5,64.8333 82.5,126.167 82.5,187.5C 49.0024,186.16 24.8357,170.493 10,140.5C 7.05805,132.732 5.05805,124.732 4,116.5C 3.50001,78.8348 3.33335,41.1681 3.5,3.5 Z"/></g>
<g><path style="opacity:1" fill="#d73023" d="M 83.5,3.5 C 109.5,3.5 135.5,3.5 161.5,3.5C 161.667,42.1681 161.5,80.8348 161,119.5C 154.675,152.676 135.508,174.509 103.5,185C 96.954,186.813 90.2874,187.647 83.5,187.5C 83.5,126.167 83.5,64.8333 83.5,3.5 Z"/></g>
<g><path style="opacity:1" fill="#101210" d="M 42.5,14.5 C 44.6138,15.3602 45.7805,17.0268 46,19.5C 46.3333,22.5 46.6667,25.5 47,28.5C 48.877,24.072 51.7103,20.4053 55.5,17.5C 56.0439,26.1987 53.3773,33.8653 47.5,40.5C 47.8333,40.8333 48.1667,41.1667 48.5,41.5C 52.0191,38.1465 55.6858,34.9798 59.5,32C 61.6775,30.7978 64.0108,30.2978 66.5,30.5C 65.634,34.8859 63.3006,38.3859 59.5,41C 55.5,43.3333 51.5,45.6667 47.5,48C 50.372,50.5366 52.872,53.3699 55,56.5C 56.7241,54.155 58.5574,53.655 60.5,55C 59.7323,57.1364 59.0656,59.3031 58.5,61.5C 59.6207,64.1965 59.6207,66.8631 58.5,69.5C 57.2322,68.5721 55.8989,68.4054 54.5,69C 53.2101,71.292 51.5435,73.292 49.5,75C 55.2524,78.1809 55.9191,82.1809 51.5,87C 51.8333,87.3333 52.1667,87.6667 52.5,88C 55.1111,86.4926 57.7778,84.6593 60.5,82.5C 61.2962,85.7168 60.9628,88.8835 59.5,92C 64.1457,95.9321 66.979,100.765 68,106.5C 63.9167,104.543 60.0834,102.21 56.5,99.5C 53.1667,103.5 49.5,107.167 45.5,110.5C 47.5994,111.965 49.7661,113.299 52,114.5C 55.2252,111.801 58.7252,109.467 62.5,107.5C 62.8333,108 63.1667,108.5 63.5,109C 62.4992,112.834 60.8325,116.334 58.5,119.5C 67.4688,133.131 65.6354,134.798 53,124.5C 50.8222,125.647 49.3222,127.313 48.5,129.5C 52.431,133.607 56.2644,137.94 60,142.5C 62.4151,145.595 63.2485,148.929 62.5,152.5C 55.811,147.978 50.311,142.311 46,135.5C 45.6667,142.5 45.3333,149.5 45,156.5C 41.7856,160.464 39.9522,160.131 39.5,155.5C 40.4751,149.518 40.6417,143.518 40,137.5C 35.6237,143.544 30.2904,148.544 24,152.5C 24.7525,143.696 29.0858,137.03 37,132.5C 37.9666,129.064 36.9666,126.397 34,124.5C 20.2176,134.874 18.3843,133.207 28.5,119.5C 25.355,115.926 24.0216,111.926 24.5,107.5C 27.8333,109.833 31.1667,112.167 34.5,114.5C 36.8333,113.333 39.1667,112.167 41.5,111C 37,107.833 33.1667,104 30,99.5C 26.6719,102.333 23.0052,104.666 19,106.5C 19.5766,100.535 22.41,95.7013 27.5,92C 24.043,81.2695 25.8764,80.1028 33,88.5C 33.7504,87.8742 34.5838,87.3742 35.5,87C 31.089,82.1323 31.7557,78.1323 37.5,75C 35.4565,73.292 33.7899,71.292 32.5,69C 30.5116,68.8195 28.5116,68.9862 26.5,69.5C 26.4621,66.8187 27.1287,64.3187 28.5,62C 26.9379,59.2083 26.6046,56.3749 27.5,53.5C 28.8333,54.5 30.1667,55.5 31.5,56.5C 34.0358,53.801 36.3691,50.9676 38.5,48C 33.8627,45.011 29.196,42.011 24.5,39C 22.2177,36.6026 20.8844,33.7693 20.5,30.5C 28.0748,31.8773 33.9082,35.8773 38,42.5C 38.6667,41.1667 38.6667,39.8333 38,38.5C 32.2408,32.0208 30.4075,25.1875 32.5,18C 34.7879,20.7433 36.9545,23.5767 39,26.5C 39.554,22.2775 40.7206,18.2775 42.5,14.5 Z"/></g>
<g><path style="opacity:1" fill="#253167" d="M 41.5,40.5 C 44.5036,40.3347 46.5036,41.6681 47.5,44.5C 44.6127,49.711 41.946,49.711 39.5,44.5C 39.7517,42.9271 40.4183,41.5938 41.5,40.5 Z"/></g>
<g><path style="opacity:1" fill="#185729" d="M 61.5,32.5 C 62.552,32.3505 63.552,32.5172 64.5,33C 60.6204,38.4166 55.6204,42.0833 49.5,44C 52.7366,39.2611 56.7366,35.4278 61.5,32.5 Z"/></g>
<g><path style="opacity:1" fill="#185929" d="M 22.5,33.5 C 22.56,32.9569 22.8933,32.6236 23.5,32.5C 28.8936,35.3884 33.5603,39.2218 37.5,44C 31.5412,42.0082 26.5412,38.5082 22.5,33.5 Z"/></g>
<g><path style="opacity:1" fill="#185729" d="M 53.5,20.5 C 53.916,27.7145 51.416,34.0479 46,39.5C 45.5162,37.0871 45.8495,34.7538 47,32.5C 48.9373,28.2862 51.104,24.2862 53.5,20.5 Z"/></g>
<g><path style="opacity:1" fill="#185829" d="M 32.5,21.5 C 37.4093,26.5596 40.2426,32.5596 41,39.5C 36.2784,34.3902 33.4451,28.3902 32.5,21.5 Z"/></g>
<g><path style="opacity:1" fill="#185729" d="M 42.5,17.5 C 43.1174,17.6107 43.6174,17.944 44,18.5C 46.2975,25.3884 45.9641,32.0551 43,38.5C 41.256,31.5187 41.0894,24.5187 42.5,17.5 Z"/></g>
<g><path style="opacity:1" fill="#185729" d="M 39.5,49.5 C 40.0542,51.7705 39.5542,54.1038 38,56.5C 35.6961,60.7974 32.6961,64.4641 29,67.5C 30.653,60.5413 34.153,54.5413 39.5,49.5 Z"/></g>
<g><path style="opacity:1" fill="#185528" d="M 45.5,50.5 C 45.8966,49.475 46.5632,49.3083 47.5,50C 52.0349,54.8978 55.7016,60.3978 58.5,66.5C 56.6707,67.2824 55.1707,66.6157 54,64.5C 50.8767,59.9035 48.0433,55.2368 45.5,50.5 Z"/></g>
<g><path style="opacity:1" fill="#908d8a" d="M 45.5,54.5 C 45.1805,59.3633 45.5139,64.03 46.5,68.5C 46.2172,69.2891 45.7172,69.9558 45,70.5C 44.1863,63.7656 44.3529,58.4323 45.5,54.5 Z"/></g>
<g><path style="opacity:1" fill="#f4f4f3" d="M 40.5,54.5 C 41.6497,59.3158 41.8163,64.3158 41,69.5C 39.8773,66.7513 38.3773,64.2513 36.5,62C 37.9858,59.5255 39.3192,57.0255 40.5,54.5 Z"/></g>
<g><path style="opacity:1" fill="#f5f5f4" d="M 45.5,54.5 C 47.0192,57.0205 48.6859,59.5205 50.5,62C 48.7682,63.9719 47.4348,66.1386 46.5,68.5C 45.5139,64.03 45.1805,59.3633 45.5,54.5 Z"/></g>
<g><path style="opacity:1" fill="#185a2a" d="M 34.5,64.5 C 35.4959,64.4142 36.3292,64.7476 37,65.5C 38.6446,68.6215 40.1446,71.7882 41.5,75C 37.6342,73.8022 34.9675,71.1355 33.5,67C 33.7432,66.0979 34.0766,65.2646 34.5,64.5 Z"/></g>
<g><path style="opacity:1" fill="#185628" d="M 50.5,63.5 C 51.8118,64.1451 52.8118,65.1451 53.5,66.5C 51.8802,70.0819 49.5469,73.0819 46.5,75.5C 46.1667,75 45.8333,74.5 45.5,74C 47.0753,70.4325 48.7419,66.9325 50.5,63.5 Z"/></g>
<g><path style="opacity:1" fill="#253167" d="M 35.5,77.5 C 42.004,77.1377 43.6707,79.6377 40.5,85C 34.152,85.4575 32.4853,82.9575 35.5,77.5 Z"/></g>
<g><path style="opacity:1" fill="#253167" d="M 45.5,77.5 C 52.536,76.6026 54.2027,79.1026 50.5,85C 44.7853,85.401 43.1187,82.901 45.5,77.5 Z"/></g>
<g><path style="opacity:1" fill="#185829" d="M 58.5,85.5 C 57.6323,94.546 53.4656,102.213 46,108.5C 47.5256,99.4522 51.6923,91.7856 58.5,85.5 Z"/></g>
<g><path style="opacity:1" fill="#18592a" d="M 27.5,85.5 C 34.55,91.2741 38.7166,98.6074 40,107.5C 32.9743,101.781 28.8076,94.4476 27.5,85.5 Z"/></g>
<g><path style="opacity:1" fill="#253167" d="M 40.5,86.5 C 47.004,86.1377 48.6707,88.6377 45.5,94C 39.5933,94.7465 37.9267,92.2465 40.5,86.5 Z"/></g>
<g><path style="opacity:1" fill="#185a2a" d="M 58.5,94.5 C 61.3338,96.5015 63.6671,99.0015 65.5,102C 62.6487,101.828 60.1487,100.661 58,98.5C 57.805,97.1807 57.9717,95.8474 58.5,94.5 Z"/></g>
<g><path style="opacity:1" fill="#185528" d="M 26.5,94.5 C 28.6086,95.0524 29.4419,96.3858 29,98.5C 26.8513,100.661 24.3513,101.828 21.5,102C 23.3009,99.5574 24.9676,97.0574 26.5,94.5 Z"/></g>
<g><path style="opacity:1" fill="#e1e0df" d="M 37.5,93.5 C 41.0557,95.0869 42.2223,97.7536 41,101.5C 39.5462,98.9289 38.3795,96.2622 37.5,93.5 Z"/></g>
<g><path style="opacity:1" fill="#e8e7e6" d="M 48.5,93.5 C 49.0431,93.56 49.3764,93.8933 49.5,94.5C 48.081,96.3359 46.9143,98.3359 46,100.5C 45.8333,99.6667 45.6667,98.8333 45.5,98C 46.0077,96.1074 47.0077,94.6074 48.5,93.5 Z"/></g>
<g><path style="opacity:1" fill="#185729" d="M 25.5,110.5 C 28.2254,111.713 30.5588,113.546 32.5,116C 31.6667,116.833 30.8333,117.667 30,118.5C 28.2226,115.941 26.7226,113.274 25.5,110.5 Z"/></g>
<g><path style="opacity:1" fill="#185528" d="M 60.5,109.5 C 60.69,112.823 59.3567,115.823 56.5,118.5C 55.7132,117.758 55.0465,116.925 54.5,116C 56.7059,113.963 58.7059,111.797 60.5,109.5 Z"/></g>
<g><path style="opacity:1" fill="#185829" d="M 46.5,113.5 C 53.3205,116.816 58.1538,121.816 61,128.5C 54.5967,124.932 49.7634,119.932 46.5,113.5 Z"/></g>
<g><path style="opacity:1" fill="#185729" d="M 39.5,113.5 C 40.0431,113.56 40.3764,113.893 40.5,114.5C 36.8096,120.357 31.9763,125.024 26,128.5C 25.6848,127.092 26.0181,125.759 27,124.5C 30.7672,120.224 34.9339,116.557 39.5,113.5 Z"/></g>
<g><path style="opacity:1" fill="#e5e4e3" d="M 40.5,116.5 C 41.6341,118.966 41.8007,121.633 41,124.5C 40.3645,123.034 39.5312,121.7 38.5,120.5C 39.1799,119.14 39.8466,117.807 40.5,116.5 Z"/></g>
<g><path style="opacity:1" fill="#f2f1f1" d="M 45.5,117.5 C 49.1876,119.047 49.3543,121.047 46,123.5C 45.5045,121.527 45.3379,119.527 45.5,117.5 Z"/></g>
<g><path style="opacity:1" fill="#fdfdfd" d="M -0.5,116.5 C 6.47657,157.81 30.4766,182.81 71.5,191.5C 47.5,191.5 23.5,191.5 -0.5,191.5C -0.5,166.5 -0.5,141.5 -0.5,116.5 Z"/></g>
<g><path style="opacity:1" fill="#185629" d="M 36.5,121.5 C 37.8366,122.315 38.8366,123.482 39.5,125C 36.3717,125.384 35.3717,124.217 36.5,121.5 Z"/></g>
<g><path style="opacity:1" fill="#fcfcfc" d="M 165.5,118.5 C 165.5,142.833 165.5,167.167 165.5,191.5C 140.833,191.5 116.167,191.5 91.5,191.5C 132.7,183.966 157.367,159.633 165.5,118.5 Z"/></g>
<g><path style="opacity:1" fill="#185628" d="M 49.5,121.5 C 51.8431,122.967 51.5097,124.301 48.5,125.5C 48.1667,125.167 47.8333,124.833 47.5,124.5C 48.1925,123.482 48.8592,122.482 49.5,121.5 Z"/></g>
<g><path style="opacity:1" fill="#253167" d="M 42.5,125.5 C 47.3051,126.599 48.3051,129.099 45.5,133C 41,133.833 39.1667,132 40,127.5C 40.9947,126.934 41.828,126.267 42.5,125.5 Z"/></g>
<g><path style="opacity:1" fill="#185729" d="M 37.5,133.5 C 38.3764,133.369 39.0431,133.702 39.5,134.5C 35.4981,139.999 30.9981,144.999 26,149.5C 26.4631,146.23 27.7964,143.23 30,140.5C 32.4786,138.034 34.9786,135.701 37.5,133.5 Z"/></g>
<g><path style="opacity:1" fill="#185729" d="M 47.5,133.5 C 54.1255,137.11 58.6255,142.444 61,149.5C 54.8404,145.481 50.3404,140.148 47.5,133.5 Z"/></g>
<g><path style="opacity:1" fill="#185b2a" d="M 42.5,135.5 C 43.1651,138.649 43.4984,141.982 43.5,145.5C 43.6323,149.349 43.1323,153.016 42,156.5C 42.13,149.808 42.2966,142.808 42.5,135.5 Z"/></g>
</svg>

<svg xmlns="http://www.w3.org/2000/svg" width="166" height="192" style="shape-rendering:geometricPrecision;text-rendering:geometricPrecision;image-rendering:optimizeQuality;fill-rule:evenodd;clip-rule:evenodd"><path style="opacity:1" fill="#140d0b" d="M-.5-.5h166v119c-8.133 41.133-32.8 65.466-74 73h-20c-41.023-8.69-65.023-33.69-72-75V-.5z"/><path style="opacity:1" fill="#fbfafa" d="M3.5 3.5h79v184c-33.498-1.34-57.664-17.007-72.5-47a105.508 105.508 0 0 1-6-24c-.5-37.665-.667-75.332-.5-113z"/><path style="opacity:1" fill="#d73023" d="M83.5 3.5h78c.167 38.668 0 77.335-.5 116-6.325 33.176-25.492 55.009-57.5 65.5a68.942 68.942 0 0 1-20 2.5V3.5z"/><path style="opacity:1" fill="#101210" d="M42.5 14.5c2.114.86 3.28 2.527 3.5 5l1 9c1.877-4.428 4.71-8.095 8.5-11 .544 8.699-2.123 16.365-8 23l1 1c3.52-3.353 7.186-6.52 11-9.5 2.178-1.202 4.51-1.702 7-1.5-.866 4.386-3.2 7.886-7 10.5l-12 7a45.24 45.24 0 0 1 7.5 8.5c1.724-2.345 3.557-2.845 5.5-1.5a73.12 73.12 0 0 0-2 6.5c1.12 2.697 1.12 5.363 0 8-1.268-.928-2.601-1.095-4-.5a21.52 21.52 0 0 1-5 6c5.752 3.18 6.42 7.18 2 12l1 1c2.611-1.507 5.278-3.34 8-5.5.796 3.217.463 6.383-1 9.5 4.646 3.932 7.479 8.765 8.5 14.5a67.066 67.066 0 0 1-11.5-7c-3.333 4-7 7.667-11 11a65.8 65.8 0 0 0 6.5 4 58.254 58.254 0 0 1 10.5-7l1 1.5a30.546 30.546 0 0 1-5 10.5c8.969 13.631 7.135 15.298-5.5 5-2.178 1.147-3.678 2.813-4.5 5a224.963 224.963 0 0 1 11.5 13c2.415 3.095 3.248 6.429 2.5 10-6.689-4.522-12.189-10.189-16.5-17l-1 21c-3.214 3.964-5.048 3.631-5.5-1a67.138 67.138 0 0 0 .5-18c-4.376 6.044-9.71 11.044-16 15 .753-8.804 5.086-15.47 13-20 .967-3.436-.033-6.103-3-8-13.782 10.374-15.616 8.707-5.5-5-3.145-3.574-4.478-7.574-4-12l10 7 7-3.5c-4.5-3.167-8.333-7-11.5-11.5a47.2 47.2 0 0 1-11 7c.577-5.965 3.41-10.799 8.5-14.5-3.457-10.73-1.624-11.897 5.5-3.5a9.468 9.468 0 0 1 2.5-1.5c-4.411-4.868-3.744-8.868 2-12a21.52 21.52 0 0 1-5-6 17.64 17.64 0 0 0-6 .5 14.075 14.075 0 0 1 2-7.5c-1.562-2.792-1.895-5.625-1-8.5l4 3a83.715 83.715 0 0 0 7-8.5 6975.587 6975.587 0 0 0-14-9c-2.282-2.397-3.616-5.23-4-8.5 7.575 1.377 13.408 5.377 17.5 12 .667-1.333.667-2.667 0-4-5.76-6.48-7.593-13.313-5.5-20.5a126.48 126.48 0 0 1 6.5 8.5 40.277 40.277 0 0 1 3.5-12z"/><path style="opacity:1" fill="#253167" d="M41.5 40.5c3.004-.165 5.004 1.168 6 4-2.887 5.211-5.554 5.211-8 0 .252-1.573.918-2.906 2-4z"/><path style="opacity:1" fill="#185729" d="M61.5 32.5a4.932 4.932 0 0 1 3 .5c-3.88 5.417-8.88 9.083-15 11 3.237-4.739 7.237-8.572 12-11.5z"/><path style="opacity:1" fill="#185929" d="M22.5 33.5c.06-.543.393-.876 1-1 5.394 2.888 10.06 6.722 14 11.5-5.959-1.992-10.959-5.492-15-10.5z"/><path style="opacity:1" fill="#185729" d="M53.5 20.5c.416 7.215-2.084 13.548-7.5 19-.484-2.413-.15-4.746 1-7a102.387 102.387 0 0 1 6.5-12z"/><path style="opacity:1" fill="#185829" d="M32.5 21.5c4.91 5.06 7.743 11.06 8.5 18-4.722-5.11-7.555-11.11-8.5-18z"/><path style="opacity:1" fill="#185729" d="M42.5 17.5c.617.11 1.117.444 1.5 1 2.297 6.888 1.964 13.555-1 20-1.744-6.981-1.91-13.981-.5-21zM39.5 49.5c.554 2.27.054 4.604-1.5 7-2.304 4.297-5.304 7.964-9 11 1.653-6.959 5.153-12.959 10.5-18z"/><path style="opacity:1" fill="#185528" d="M45.5 50.5c.397-1.025 1.063-1.192 2-.5a62.435 62.435 0 0 1 11 16.5c-1.83.782-3.33.116-4.5-2a157.356 157.356 0 0 1-8.5-14z"/><path style="opacity:1" fill="#908d8a" d="M45.5 54.5c-.32 4.863.014 9.53 1 14-.283.79-.783 1.456-1.5 2-.814-6.734-.647-12.068.5-16z"/><path style="opacity:1" fill="#f4f4f3" d="M40.5 54.5c1.15 4.816 1.316 9.816.5 15a28.409 28.409 0 0 0-4.5-7.5 82.211 82.211 0 0 0 4-7.5z"/><path style="opacity:1" fill="#f5f5f4" d="M45.5 54.5c1.52 2.52 3.186 5.02 5 7.5-1.732 1.972-3.065 4.139-4 6.5-.986-4.47-1.32-9.137-1-14z"/><path style="opacity:1" fill="#185a2a" d="M34.5 64.5c.996-.086 1.83.248 2.5 1a122.826 122.826 0 0 1 4.5 9.5c-3.866-1.198-6.532-3.865-8-8 .243-.902.577-1.735 1-2.5z"/><path style="opacity:1" fill="#185628" d="M50.5 63.5c1.312.645 2.312 1.645 3 3-1.62 3.582-3.953 6.582-7 9l-1-1.5a202.132 202.132 0 0 1 5-10.5z"/><path style="opacity:1" fill="#253167" d="M35.5 77.5c6.504-.362 8.17 2.138 5 7.5-6.348.457-8.015-2.043-5-7.5zM45.5 77.5c7.036-.897 8.703 1.603 5 7.5-5.715.401-7.381-2.099-5-7.5z"/><path style="opacity:1" fill="#185829" d="M58.5 85.5c-.868 9.046-5.034 16.713-12.5 23 1.526-9.048 5.692-16.714 12.5-23z"/><path style="opacity:1" fill="#18592a" d="M27.5 85.5c7.05 5.774 11.217 13.107 12.5 22-7.026-5.719-11.192-13.052-12.5-22z"/><path style="opacity:1" fill="#253167" d="M40.5 86.5c6.504-.362 8.17 2.138 5 7.5-5.907.746-7.573-1.754-5-7.5z"/><path style="opacity:1" fill="#185a2a" d="M58.5 94.5a25.111 25.111 0 0 1 7 7.5c-2.851-.172-5.351-1.339-7.5-3.5-.195-1.32-.028-2.653.5-4z"/><path style="opacity:1" fill="#185528" d="M26.5 94.5c2.109.552 2.942 1.886 2.5 4-2.149 2.161-4.649 3.328-7.5 3.5a94.391 94.391 0 0 0 5-7.5z"/><path style="opacity:1" fill="#e1e0df" d="M37.5 93.5c3.556 1.587 4.722 4.254 3.5 8a42.28 42.28 0 0 1-3.5-8z"/><path style="opacity:1" fill="#e8e7e6" d="M48.5 93.5c.543.06.876.393 1 1a26.86 26.86 0 0 0-3.5 6l-.5-2.5c.508-1.893 1.508-3.393 3-4.5z"/><path style="opacity:1" fill="#185729" d="M25.5 110.5c2.725 1.213 5.059 3.046 7 5.5l-2.5 2.5a47.791 47.791 0 0 1-4.5-8z"/><path style="opacity:1" fill="#185528" d="M60.5 109.5c.19 3.323-1.143 6.323-4 9a11.371 11.371 0 0 1-2-2.5 54.547 54.547 0 0 0 6-6.5z"/><path style="opacity:1" fill="#185829" d="M46.5 113.5c6.82 3.316 11.654 8.316 14.5 15-6.403-3.568-11.237-8.568-14.5-15z"/><path style="opacity:1" fill="#185729" d="M39.5 113.5c.543.06.876.393 1 1-3.69 5.857-8.524 10.524-14.5 14-.315-1.408.018-2.741 1-4 3.767-4.276 7.934-7.943 12.5-11z"/><path style="opacity:1" fill="#e5e4e3" d="M40.5 116.5c1.134 2.466 1.3 5.133.5 8a15.653 15.653 0 0 0-2.5-4l2-4z"/><path style="opacity:1" fill="#f2f1f1" d="M45.5 117.5c3.688 1.547 3.854 3.547.5 6a18.437 18.437 0 0 1-.5-6z"/><path style="opacity:1" fill="#fdfdfd" d="M-.5 116.5c6.977 41.31 30.977 66.31 72 75h-72v-75z"/><path style="opacity:1" fill="#185629" d="M36.5 121.5c1.337.815 2.337 1.982 3 3.5-3.128.384-4.128-.783-3-3.5z"/><path style="opacity:1" fill="#fcfcfc" d="M165.5 118.5v73h-74c41.2-7.534 65.867-31.867 74-73z"/><path style="opacity:1" fill="#185628" d="M49.5 121.5c2.343 1.467 2.01 2.801-1 4l-1-1c.693-1.018 1.36-2.018 2-3z"/><path style="opacity:1" fill="#253167" d="M42.5 125.5c4.805 1.099 5.805 3.599 3 7.5-4.5.833-6.333-1-5.5-5.5.995-.566 1.828-1.233 2.5-2z"/><path style="opacity:1" fill="#185729" d="M37.5 133.5c.876-.131 1.543.202 2 1a96.67 96.67 0 0 1-13.5 15c.463-3.27 1.796-6.27 4-9a157.395 157.395 0 0 1 7.5-7zM47.5 133.5c6.626 3.61 11.126 8.944 13.5 16-6.16-4.019-10.66-9.352-13.5-16z"/><path style="opacity:1" fill="#185b2a" d="M42.5 135.5c.665 3.149.998 6.482 1 10 .132 3.849-.368 7.516-1.5 11 .13-6.692.297-13.692.5-21z"/></svg>
